Newaita-dark/apps/24/com.github.kjlaw89.archetype.svg

<svg height="24pt" viewBox="0 0 24 24" width="24pt" xmlns="http://www.w3.org/2000/svg" xmlns:xlink="http://www.w3.org/1999/xlink"><linearGradient id="a" gradientUnits="userSpaceOnUse" x1="11.907391" x2="11.907391" y1="21.02545025" y2="22.01773315627"><stop offset="0" stop-opacity=".27451"/><stop offset="1" stop-opacity="0"/></linearGradient><linearGradient id="b"><stop offset="0" stop-opacity=".313725"/><stop offset=".222222" stop-opacity=".27451"/><stop offset="1" stop-opacity="0"/></linearGradient><radialGradient id="c" cx="450.90894" cy="189.57936" gradientTransform="matrix(.00000013 -.0585994 -.105479 -.00000008 40.090268 47.6965)" gradientUnits="userSpaceOnUse" r="21.166656" xlink:href="#b"/><radialGradient id="d" cx="450.90894" cy="189.57936" gradientTransform="matrix(-.00000013 .0585994 .105479 .00000008 -16.275494 -5.64561)" gradientUnits="userSpaceOnUse" r="21.166656" xlink:href="#b"/><radialGradient id="e" cx="450.90894" cy="189.57936" gradientTransform="matrix(-.00000013 -.0585994 .105479 -.00000008 -16.275494 47.6965)" gradientUnits="userSpaceOnUse" r="21.166656" xlink:href="#b"/><radialGradient id="f" cx="450.90894" cy="189.57936" gradientTransform="matrix(.00000013 .0585994 -.105479 .00000008 40.090267 -5.64561)" gradientUnits="userSpaceOnUse" r="21.166656" xlink:href="#b"/><linearGradient id="g"><stop offset="0" stop-color="#7e57c2"/><stop offset="1" stop-color="#9575cd"/></linearGradient><linearGradient id="h" gradientTransform="matrix(.0565122 0 0 .163059 -4.39051 25.231011)" gradientUnits="userSpaceOnUse" x1="306.91666" x2="305.95456" xlink:href="#g" y1="-25.791676" y2="-135.32916"/><linearGradient id="i" gradientTransform="matrix(4.556143 0 0 13.146184 -353.97266 2034.1802)" gradientUnits="userSpaceOnUse" x1="306.91666" x2="305.95456" xlink:href="#g" y1="-25.791676" y2="-135.32916"/><linearGradient id="j" gradientUnits="userSpaceOnUse" x1="333.37491475" x2="333.37491475" y1="-121.04159841667" y2="-89.29164325"><stop offset="0" stop-color="#66bb6a"/><stop offset="1" stop-color="#81c784"/></linearGradient><linearGradient id="k" gradientUnits="userSpaceOnUse" x1="386.29150925" x2="386.29150925" y1="-121.04167558333" y2="-89.29163575"><stop offset="0" stop-color="#ffd54f"/><stop offset="1" stop-color="#ffe082"/></linearGradient><linearGradient id="l" gradientUnits="userSpaceOnUse" x1="439.2083" x2="439.2083" y1="-121.0416835" y2="-89.291686"><stop offset="0" stop-color="#e57373"/><stop offset="1" stop-color="#ef9a9a"/></linearGradient><linearGradient id="m" gradientUnits="userSpaceOnUse" x1="11.907393" x2="11.907393" y1="18.54474368753" y2="8.62191584375"><stop offset="0" stop-color="#bdbdbd"/><stop offset="1" stop-color="#e0e0e0"/></linearGradient><path d="m3.472656 21.027344h16.867188v.992187h-16.867188zm0 0" fill="url(#a)"/><path d="m20.339844 21.027344h1.988281v-.996094h-1.988281zm0 0" fill="url(#c)"/><path d="m3.472656 21.027344h-1.984375v.992187h1.984375zm0 0" fill="url(#d)"/><path d="m3.472656 21.027344h-1.984375v-.996094h1.984375zm0 0" fill="url(#e)"/><path d="m20.339844 21.027344h1.988281v.992187h-1.988281zm0 0" fill="url(#f)"/><path d="m2.480469 3.164062h18.855469c.546874 0 .992187.445313.992187.992188v15.875c0 .550781-.445313.996094-.992187.996094h-18.855469c-.546875 0-.992188-.445313-.992188-.996094v-15.875c0-.546875.445313-.992188.992188-.992188zm0 0" fill="url(#h)"/><path d="m1.488281 7.132812h20.839844v.496094h-20.839844zm0 0" fill="#0a0d0e" fill-opacity=".235294"/><path d="m2.480469 21.035156c-.550781 0-.992188-.441406-.992188-.992187v-.257813c0 .550782.441407.992188.992188.992188h18.855469c.546874 0 .992187-.441406.992187-.992188v.257813c0 .550781-.445313.992187-.992187.992187zm0 0" fill-opacity=".235294"/><path d="m199.980905 255.093753c-44.405209 0-79.992362 35.587153-79.992362 79.992362v239.977087h1680.154535v-239.977087c0-44.405209-35.902084-79.992362-79.992362-79.992362zm0 0" fill="url(#i)" stroke="#212121" stroke-linecap="round" stroke-width="11.338583" transform="scale(.0124035)"/><path d="m2.480469 3.222656c-.550781 0-.992188.441406-.992188.992188v.257812c0-.550781.441407-.992187.992188-.992187h18.855469c.546874 0 .992187.441406.992187.992187v-.257812c0-.550782-.445313-.992188-.992187-.992188zm0 0" fill="#fff" fill-opacity=".392157"/><path d="m2.480469 3.09375c-.585938 0-1.0625.476562-1.0625 1.0625v15.875c0 .589844.476562 1.066406 1.0625 1.066406h18.855469c.585937 0 1.0625-.476562 1.0625-1.066406v-15.875c0-.585938-.476563-1.0625-1.0625-1.0625zm0 .140625h18.855469c.511718 0 .921874.410156.921874.921875v15.875c0 .515625-.410156.925781-.921874.925781h-18.855469c-.511719 0-.921875-.410156-.921875-.925781v-15.875c0-.511719.410156-.921875.921875-.921875zm0 0" fill="#212121"/><g stroke="#212121" stroke-linecap="round"><path d="m333.38483-121.008976c8.749165 0 15.831821 7.082657 15.831821 15.831822 0 8.749164-7.082656 15.915147-15.831821 15.915147-8.749164 0-15.915147-7.165983-15.915147-15.915147 0-8.749165 7.165983-15.831822 15.915147-15.831822zm0 0" fill="url(#j)" stroke-width="3" transform="matrix(.0468795 0 0 .0468795 0 10.079087)"/><path d="m386.296444-121.008976c8.749164 0 15.831821 7.082657 15.831821 15.831822 0 8.749164-7.082657 15.915147-15.831821 15.915147-8.749165 0-15.915147-7.165983-15.915147-15.915147 0-8.749165 7.165982-15.831822 15.915147-15.831822zm0 0" fill="url(#k)" stroke-width="3" transform="matrix(.0468795 0 0 .0468795 0 10.079087)"/><path d="m439.208058-121.008976c8.749164 0 15.915147 7.082657 15.915147 15.831822 0 8.749164-7.165983 15.915147-15.915147 15.915147-8.749165 0-15.915147-7.165983-15.915147-15.915147 0-8.749165 7.165982-15.831822 15.915147-15.831822zm0 0" fill="url(#l)" stroke-width="3" transform="matrix(.0468795 0 0 .0468795 0 10.079087)"/></g><path d="m12.402344 8.621094c-.195313 0-.371094.117187-.453125.296875l-3.96875 8.929687c-.144531.328125.09375.695313.453125.695313h1.488281c.199219 0 .382813-.121094.457031-.304688l1.113282-2.671875h1.730468l.429688 2.5625c.039062.238282.246094.414063.488281.414063h1.488281c.3125 0 .546875-.28125.484375-.589844l-1.734375-8.929687c-.046875-.234376-.25-.402344-.488281-.402344zm.25 1.984375h.246094l.25 3.472656h-1.242188zm0 0" fill="url(#m)"/><path d="m12.402344 8.683594c-.195313 0-.371094.117187-.453125.292968l-3.96875 8.933594c-.042969.097656-.050781.199219-.03125.292969.003906-.035156.015625-.074219.03125-.109375l3.96875-8.929688c.082031-.179687.257812-.292968.453125-.292968h1.488281c.238281 0 .441406.167968.488281.398437l1.734375 8.929688v.003906c.011719-.058594.015625-.125 0-.1875l-1.734375-8.929687c-.046875-.234376-.25-.402344-.488281-.402344zm-.457032 5.457031-.039062.183594h1.242188l-.015626-.183594zm0 0" fill="#fbfbfb"/><path d="m12.652344 10.675781-.746094 3.472657h.066406l.679688-3.164063h.246094l.226562 3.164063h.023438l-.25-3.472657zm-1.160156 4.960938-1.113282 2.671875c-.074218.183594-.257812.304687-.457031.304687h-1.488281c-.226563 0-.40625-.148437-.46875-.339843-.105469.3125.128906.648437.46875.648437h1.488281c.199219 0 .382813-.121094.457031-.304687l1.113282-2.671876h1.730468l.429688 2.5625c.039062.238282.246094.414063.488281.414063h1.488281c.3125 0 .546875-.285156.484375-.589844l-.011719-.066406c-.0625.199219-.246093.347656-.472656.347656h-1.488281c-.242187 0-.449219-.175781-.488281-.414062l-.429688-2.5625zm0 0" fill-opacity=".235294"/><path d="m999.904526 695.051745c-15.746527 0-29.918403 9.447917-36.531944 23.934722l-319.969449 719.931259c-11.652431 26.454167 7.558334 56.05764 36.531945 56.05764h119.988543c16.061459 0 30.863195-9.762847 36.846876-24.564584l89.755209-215.412502h139.514238l34.642362 206.594447c3.149305 19.210764 19.840625 33.382639 39.366319 33.382639h119.988544c25.194444 0 44.090278-22.675 39.051389-47.554514l-139.829168-719.93126c-3.779167-18.895833-20.155556-32.437847-39.36632-32.437847zm20.155556 159.984724h19.840626l20.155555 279.973268h-100.147918zm0 0" fill="none" stroke="#212121" stroke-linecap="round" stroke-linejoin="round" stroke-width="11.338583" transform="scale(.0124035)"/></svg>

<?xml version="1.0" encoding="UTF-8"?>
<svg xmlns="http://www.w3.org/2000/svg" xmlns:xlink="http://www.w3.org/1999/xlink" width="24pt" height="24pt" viewBox="0 0 24 24" version="1.1">
<defs>
<linearGradient id="linear0" gradientUnits="userSpaceOnUse" x1="254" y1="233.5" x2="254" y2="254.66667" gradientTransform="matrix(0.0468795,0,0,0.0468795,-0.00000187518,10.079087)">
<stop offset="0" style="stop-color:rgb(0%,0%,0%);stop-opacity:0.27451;"/>
<stop offset="1" style="stop-color:rgb(0%,0%,0%);stop-opacity:0;"/>
</linearGradient>
<radialGradient id="radial0" gradientUnits="userSpaceOnUse" cx="450.90894" cy="189.57936" fx="450.90894" fy="189.57936" r="21.166656" gradientTransform="matrix(0.000000130628,-0.0585994,-0.105479,-0.0000000761539,40.090268,47.6965)">
<stop offset="0" style="stop-color:rgb(0%,0%,0%);stop-opacity:0.313725;"/>
<stop offset="0.222222" style="stop-color:rgb(0%,0%,0%);stop-opacity:0.27451;"/>
<stop offset="1" style="stop-color:rgb(0%,0%,0%);stop-opacity:0;"/>
</radialGradient>
<radialGradient id="radial1" gradientUnits="userSpaceOnUse" cx="450.90894" cy="189.57936" fx="450.90894" fy="189.57936" r="21.166656" gradientTransform="matrix(-0.000000130628,0.0585994,0.105479,0.0000000761539,-16.275494,-5.64561)">
<stop offset="0" style="stop-color:rgb(0%,0%,0%);stop-opacity:0.313725;"/>
<stop offset="0.222222" style="stop-color:rgb(0%,0%,0%);stop-opacity:0.27451;"/>
<stop offset="1" style="stop-color:rgb(0%,0%,0%);stop-opacity:0;"/>
</radialGradient>
<radialGradient id="radial2" gradientUnits="userSpaceOnUse" cx="450.90894" cy="189.57936" fx="450.90894" fy="189.57936" r="21.166656" gradientTransform="matrix(-0.000000130628,-0.0585994,0.105479,-0.0000000761539,-16.275494,47.6965)">
<stop offset="0" style="stop-color:rgb(0%,0%,0%);stop-opacity:0.313725;"/>
<stop offset="0.222222" style="stop-color:rgb(0%,0%,0%);stop-opacity:0.27451;"/>
<stop offset="1" style="stop-color:rgb(0%,0%,0%);stop-opacity:0;"/>
</radialGradient>
<radialGradient id="radial3" gradientUnits="userSpaceOnUse" cx="450.90894" cy="189.57936" fx="450.90894" fy="189.57936" r="21.166656" gradientTransform="matrix(0.000000130628,0.0585994,-0.105479,0.0000000761539,40.090267,-5.64561)">
<stop offset="0" style="stop-color:rgb(0%,0%,0%);stop-opacity:0.313725;"/>
<stop offset="0.222222" style="stop-color:rgb(0%,0%,0%);stop-opacity:0.27451;"/>
<stop offset="1" style="stop-color:rgb(0%,0%,0%);stop-opacity:0;"/>
</radialGradient>
<linearGradient id="linear1" gradientUnits="userSpaceOnUse" x1="306.91666" y1="-25.791676" x2="305.95456" y2="-135.32916" gradientTransform="matrix(0.0565122,0,0,0.163059,-4.39051,25.231011)">
<stop offset="0" style="stop-color:rgb(49.411765%,34.117647%,76.078431%);stop-opacity:1;"/>
<stop offset="1" style="stop-color:rgb(58.431373%,45.882353%,80.392157%);stop-opacity:1;"/>
</linearGradient>
<linearGradient id="linear2" gradientUnits="userSpaceOnUse" x1="306.91666" y1="-25.791676" x2="305.95456" y2="-135.32916" gradientTransform="matrix(4.556143,0,0,13.146184,-353.97266,2034.1802)">
<stop offset="0" style="stop-color:rgb(49.411765%,34.117647%,76.078431%);stop-opacity:1;"/>
<stop offset="1" style="stop-color:rgb(58.431373%,45.882353%,80.392157%);stop-opacity:1;"/>
</linearGradient>
<linearGradient id="linear3" gradientUnits="userSpaceOnUse" x1="349.25" y1="-158.08333" x2="349.25" y2="-115.75" gradientTransform="matrix(0.749999,0,0,0.749999,71.437764,-2.479259)">
<stop offset="0" style="stop-color:rgb(40%,73.333333%,41.568627%);stop-opacity:1;"/>
<stop offset="1" style="stop-color:rgb(50.588235%,78.039216%,51.764706%);stop-opacity:1;"/>
</linearGradient>
<linearGradient id="linear4" gradientUnits="userSpaceOnUse" x1="349.25" y1="-158.08333" x2="349.25" y2="-115.75" gradientTransform="matrix(0.750001,0,0,0.750001,124.35366,-2.47902)">
<stop offset="0" style="stop-color:rgb(100%,83.529412%,30.980392%);stop-opacity:1;"/>
<stop offset="1" style="stop-color:rgb(100%,87.843137%,50.980392%);stop-opacity:1;"/>
</linearGradient>
<linearGradient id="linear5" gradientUnits="userSpaceOnUse" x1="349.25" y1="-158.08333" x2="349.25" y2="-115.75" gradientTransform="matrix(0.75,0,0,0.75,177.2708,-2.479186)">
<stop offset="0" style="stop-color:rgb(89.803922%,45.098039%,45.098039%);stop-opacity:1;"/>
<stop offset="1" style="stop-color:rgb(93.72549%,60.392157%,60.392157%);stop-opacity:1;"/>
</linearGradient>
<linearGradient id="linear6" gradientUnits="userSpaceOnUse" x1="254" y1="180.58334" x2="254" y2="-31.083334" gradientTransform="matrix(0.0468795,0,0,0.0468795,0,10.079087)">
<stop offset="0" style="stop-color:rgb(74.117647%,74.117647%,74.117647%);stop-opacity:1;"/>
<stop offset="1" style="stop-color:rgb(87.843137%,87.843137%,87.843137%);stop-opacity:1;"/>
</linearGradient>
</defs>
<g id="surface1">
<path style=" stroke:none;fill-rule:nonzero;fill:url(#linear0);" d="M 3.472656 21.027344 L 20.339844 21.027344 L 20.339844 22.019531 L 3.472656 22.019531 Z M 3.472656 21.027344 "/>
<path style=" stroke:none;fill-rule:nonzero;fill:url(#radial0);" d="M 20.339844 21.027344 L 22.328125 21.027344 L 22.328125 20.03125 L 20.339844 20.03125 Z M 20.339844 21.027344 "/>
<path style=" stroke:none;fill-rule:nonzero;fill:url(#radial1);" d="M 3.472656 21.027344 L 1.488281 21.027344 L 1.488281 22.019531 L 3.472656 22.019531 Z M 3.472656 21.027344 "/>
<path style=" stroke:none;fill-rule:nonzero;fill:url(#radial2);" d="M 3.472656 21.027344 L 1.488281 21.027344 L 1.488281 20.03125 L 3.472656 20.03125 Z M 3.472656 21.027344 "/>
<path style=" stroke:none;fill-rule:nonzero;fill:url(#radial3);" d="M 20.339844 21.027344 L 22.328125 21.027344 L 22.328125 22.019531 L 20.339844 22.019531 Z M 20.339844 21.027344 "/>
<path style=" stroke:none;fill-rule:nonzero;fill:url(#linear1);" d="M 2.480469 3.164062 L 21.335938 3.164062 C 21.882812 3.164062 22.328125 3.609375 22.328125 4.15625 L 22.328125 20.03125 C 22.328125 20.582031 21.882812 21.027344 21.335938 21.027344 L 2.480469 21.027344 C 1.933594 21.027344 1.488281 20.582031 1.488281 20.03125 L 1.488281 4.15625 C 1.488281 3.609375 1.933594 3.164062 2.480469 3.164062 Z M 2.480469 3.164062 "/>
<path style=" stroke:none;fill-rule:nonzero;fill:rgb(3.921569%,5.098039%,5.490196%);fill-opacity:0.235294;" d="M 1.488281 7.132812 L 22.328125 7.132812 L 22.328125 7.628906 L 1.488281 7.628906 Z M 1.488281 7.132812 "/>
<path style=" stroke:none;fill-rule:nonzero;fill:rgb(0%,0%,0%);fill-opacity:0.235294;" d="M 2.480469 21.035156 C 1.929688 21.035156 1.488281 20.59375 1.488281 20.042969 L 1.488281 19.785156 C 1.488281 20.335938 1.929688 20.777344 2.480469 20.777344 L 21.335938 20.777344 C 21.882812 20.777344 22.328125 20.335938 22.328125 19.785156 L 22.328125 20.042969 C 22.328125 20.59375 21.882812 21.035156 21.335938 21.035156 Z M 2.480469 21.035156 "/>
<path style="fill-rule:nonzero;fill:url(#linear2);stroke-width:11.338583;stroke-linecap:round;stroke-linejoin:miter;stroke:rgb(12.941176%,12.941176%,12.941176%);stroke-opacity:1;stroke-miterlimit:4;" d="M 199.980905 255.093753 C 155.575696 255.093753 119.988543 290.680906 119.988543 335.086115 L 119.988543 575.063202 L 1800.143078 575.063202 L 1800.143078 335.086115 C 1800.143078 290.680906 1764.240994 255.093753 1720.150716 255.093753 Z M 199.980905 255.093753 " transform="matrix(0.0124035,0,0,0.0124035,0,0)"/>
<path style=" stroke:none;fill-rule:nonzero;fill:rgb(100%,100%,100%);fill-opacity:0.392157;" d="M 2.480469 3.222656 C 1.929688 3.222656 1.488281 3.664062 1.488281 4.214844 L 1.488281 4.472656 C 1.488281 3.921875 1.929688 3.480469 2.480469 3.480469 L 21.335938 3.480469 C 21.882812 3.480469 22.328125 3.921875 22.328125 4.472656 L 22.328125 4.214844 C 22.328125 3.664062 21.882812 3.222656 21.335938 3.222656 Z M 2.480469 3.222656 "/>
<path style=" stroke:none;fill-rule:nonzero;fill:rgb(12.941176%,12.941176%,12.941176%);fill-opacity:1;" d="M 2.480469 3.09375 C 1.894531 3.09375 1.417969 3.570312 1.417969 4.15625 L 1.417969 20.03125 C 1.417969 20.621094 1.894531 21.097656 2.480469 21.097656 L 21.335938 21.097656 C 21.921875 21.097656 22.398438 20.621094 22.398438 20.03125 L 22.398438 4.15625 C 22.398438 3.570312 21.921875 3.09375 21.335938 3.09375 Z M 2.480469 3.234375 L 21.335938 3.234375 C 21.847656 3.234375 22.257812 3.644531 22.257812 4.15625 L 22.257812 20.03125 C 22.257812 20.546875 21.847656 20.957031 21.335938 20.957031 L 2.480469 20.957031 C 1.96875 20.957031 1.558594 20.546875 1.558594 20.03125 L 1.558594 4.15625 C 1.558594 3.644531 1.96875 3.234375 2.480469 3.234375 Z M 2.480469 3.234375 "/>
<path style="fill-rule:nonzero;fill:url(#linear3);stroke-width:3;stroke-linecap:round;stroke-linejoin:miter;stroke:rgb(12.941176%,12.941176%,12.941176%);stroke-opacity:1;stroke-miterlimit:4;" d="M 333.38483 -121.008976 C 342.133995 -121.008976 349.216651 -113.926319 349.216651 -105.177154 C 349.216651 -96.42799 342.133995 -89.262007 333.38483 -89.262007 C 324.635666 -89.262007 317.469683 -96.42799 317.469683 -105.177154 C 317.469683 -113.926319 324.635666 -121.008976 333.38483 -121.008976 Z M 333.38483 -121.008976 " transform="matrix(0.0468795,0,0,0.0468795,0,10.079087)"/>
<path style="fill-rule:nonzero;fill:url(#linear4);stroke-width:3;stroke-linecap:round;stroke-linejoin:miter;stroke:rgb(12.941176%,12.941176%,12.941176%);stroke-opacity:1;stroke-miterlimit:4;" d="M 386.296444 -121.008976 C 395.045608 -121.008976 402.128265 -113.926319 402.128265 -105.177154 C 402.128265 -96.42799 395.045608 -89.262007 386.296444 -89.262007 C 377.547279 -89.262007 370.381297 -96.42799 370.381297 -105.177154 C 370.381297 -113.926319 377.547279 -121.008976 386.296444 -121.008976 Z M 386.296444 -121.008976 " transform="matrix(0.0468795,0,0,0.0468795,0,10.079087)"/>
<path style="fill-rule:nonzero;fill:url(#linear5);stroke-width:3;stroke-linecap:round;stroke-linejoin:miter;stroke:rgb(12.941176%,12.941176%,12.941176%);stroke-opacity:1;stroke-miterlimit:4;" d="M 439.208058 -121.008976 C 447.957222 -121.008976 455.123205 -113.926319 455.123205 -105.177154 C 455.123205 -96.42799 447.957222 -89.262007 439.208058 -89.262007 C 430.458893 -89.262007 423.292911 -96.42799 423.292911 -105.177154 C 423.292911 -113.926319 430.458893 -121.008976 439.208058 -121.008976 Z M 439.208058 -121.008976 " transform="matrix(0.0468795,0,0,0.0468795,0,10.079087)"/>
<path style=" stroke:none;fill-rule:nonzero;fill:url(#linear6);" d="M 12.402344 8.621094 C 12.207031 8.621094 12.03125 8.738281 11.949219 8.917969 L 7.980469 17.847656 C 7.835938 18.175781 8.074219 18.542969 8.433594 18.542969 L 9.921875 18.542969 C 10.121094 18.542969 10.304688 18.421875 10.378906 18.238281 L 11.492188 15.566406 L 13.222656 15.566406 L 13.652344 18.128906 C 13.691406 18.367188 13.898438 18.542969 14.140625 18.542969 L 15.628906 18.542969 C 15.941406 18.542969 16.175781 18.261719 16.113281 17.953125 L 14.378906 9.023438 C 14.332031 8.789062 14.128906 8.621094 13.890625 8.621094 Z M 12.652344 10.605469 L 12.898438 10.605469 L 13.148438 14.078125 L 11.90625 14.078125 Z M 12.652344 10.605469 "/>
<path style=" stroke:none;fill-rule:nonzero;fill:rgb(98.431373%,98.431373%,98.431373%);fill-opacity:1;" d="M 12.402344 8.683594 C 12.207031 8.683594 12.03125 8.800781 11.949219 8.976562 L 7.980469 17.910156 C 7.9375 18.007812 7.929688 18.109375 7.949219 18.203125 C 7.953125 18.167969 7.964844 18.128906 7.980469 18.09375 L 11.949219 9.164062 C 12.03125 8.984375 12.207031 8.871094 12.402344 8.871094 L 13.890625 8.871094 C 14.128906 8.871094 14.332031 9.039062 14.378906 9.269531 L 16.113281 18.199219 C 16.113281 18.203125 16.113281 18.203125 16.113281 18.203125 C 16.125 18.144531 16.128906 18.078125 16.113281 18.015625 L 14.378906 9.085938 C 14.332031 8.851562 14.128906 8.683594 13.890625 8.683594 Z M 11.945312 14.140625 L 11.90625 14.324219 L 13.148438 14.324219 L 13.132812 14.140625 Z M 11.945312 14.140625 "/>
<path style=" stroke:none;fill-rule:nonzero;fill:rgb(0%,0%,0%);fill-opacity:0.235294;" d="M 12.652344 10.675781 L 11.90625 14.148438 L 11.972656 14.148438 L 12.652344 10.984375 L 12.898438 10.984375 L 13.125 14.148438 L 13.148438 14.148438 L 12.898438 10.675781 Z M 11.492188 15.636719 L 10.378906 18.308594 C 10.304688 18.492188 10.121094 18.613281 9.921875 18.613281 L 8.433594 18.613281 C 8.207031 18.613281 8.027344 18.464844 7.964844 18.273438 C 7.859375 18.585938 8.09375 18.921875 8.433594 18.921875 L 9.921875 18.921875 C 10.121094 18.921875 10.304688 18.800781 10.378906 18.617188 L 11.492188 15.945312 L 13.222656 15.945312 L 13.652344 18.507812 C 13.691406 18.746094 13.898438 18.921875 14.140625 18.921875 L 15.628906 18.921875 C 15.941406 18.921875 16.175781 18.636719 16.113281 18.332031 L 16.101562 18.265625 C 16.039062 18.464844 15.855469 18.613281 15.628906 18.613281 L 14.140625 18.613281 C 13.898438 18.613281 13.691406 18.4375 13.652344 18.199219 L 13.222656 15.636719 Z M 11.492188 15.636719 "/>
<path style="fill:none;stroke-width:11.338583;stroke-linecap:round;stroke-linejoin:round;stroke:rgb(12.941176%,12.941176%,12.941176%);stroke-opacity:1;stroke-miterlimit:4;" d="M 999.904526 695.051745 C 984.157999 695.051745 969.986123 704.499662 963.372582 718.986467 L 643.403133 1438.917726 C 631.750702 1465.371893 650.961467 1494.975366 679.935078 1494.975366 L 799.923621 1494.975366 C 815.98508 1494.975366 830.786816 1485.212519 836.770497 1470.410782 L 926.525706 1254.99828 L 1066.039944 1254.99828 L 1100.682306 1461.592727 C 1103.831611 1480.803491 1120.522931 1494.975366 1140.048625 1494.975366 L 1260.037169 1494.975366 C 1285.231613 1494.975366 1304.127447 1472.300366 1299.088558 1447.420852 L 1159.25939 727.489592 C 1155.480223 708.593759 1139.103834 695.051745 1119.89307 695.051745 Z M 1020.060082 855.036469 L 1039.900708 855.036469 L 1060.056263 1135.009737 L 959.908345 1135.009737 Z M 1020.060082 855.036469 " transform="matrix(0.0124035,0,0,0.0124035,0,0)"/>
</g>
</svg>
